X:28
T:News from Denmark
M:6/8
L:1/8
B:Thompson's Compleat Collection of 200 Favourite Country Dances, vol. 3 (London, 1773)
Z:Transcribed and edited by Flynn Titford-Mock, 2007
Z:abc's:AK/Fiddler's Companion
K:G
GAG B2d | cBA G2D | GAG B2d | cBA G3::d2G def | gfe d2G |
D2G def | gfe d3 | cBA G2B | AGF G2D | cBA G2B | AGF G3 :|

